X: 18474
T: Hut On Staffin Island, The
R: hornpipe
M: 4/4
K: Gmajor
|:"G"DEGA G3A|"Bm"BGBd g2 fd|"C"e3g edBG|"D"A2 BA GEEG|
"G"DEGA G3A|"Bm"BA (3Bcd gGfG|"C"e3g edBG|1 "D"A2 BA "C"G3E:|2 "D"A2 BA "G"G2 Bd||
"Em":g4 g2 ag|"D"fefg f2 ed|"C"e2 cd efge|"D"dBAB G4|
"Em":g4 g2 ag|"D"fefg f2 ed|"C"e2 cd efge|"D"dBAB G4|
"Em"g4 g2 ag|"D"fefg f2 ed|"C"e2 cd e2 ge|"D"dBAB GEEG|
"G"DEGA G3A|"Bm"BG (3Bcd g2 fd|"C"e3g edBG|"G"A2 BA G4||

